svgs/light/dial-min.svg

<svg xmlns="http://www.w3.org/2000/svg" viewBox="0 0 576 512"><!-- Font Awesome Pro 6.0.0-alpha2 by @fontawesome - https://fontawesome.com License - https://fontawesome.com/license (Commercial License) --><path d="M32 256.002C14.326 256.002 0 270.328 0 288.002C0 305.674 14.326 320.002 32 320.002S64 305.674 64 288.002C64 270.328 49.674 256.002 32 256.002ZM84.352 446.395C71.855 458.891 71.855 479.152 84.352 491.65C96.848 504.146 117.109 504.146 129.607 491.65C142.104 479.152 142.104 458.891 129.607 446.395C117.109 433.898 96.848 433.898 84.352 446.395ZM129.607 129.609C142.104 117.113 142.104 96.852 129.607 84.355C117.109 71.857 96.848 71.857 84.352 84.355C71.855 96.852 71.855 117.113 84.352 129.609C96.848 142.107 117.109 142.107 129.607 129.609ZM288 64.002C305.672 64.002 320 49.674 320 32.002C320 14.328 305.672 0.002 288 0.002C270.326 0.002 256 14.328 256 32.002C256 49.674 270.326 64.002 288 64.002ZM446.391 446.395C433.895 458.891 433.895 479.152 446.391 491.65C458.889 504.146 479.15 504.146 491.646 491.65C504.143 479.152 504.143 458.891 491.646 446.395S458.889 433.898 446.391 446.395ZM401.137 174.863C338.652 112.381 237.346 112.381 174.861 174.865S112.377 338.656 174.861 401.139C237.346 463.625 338.652 463.625 401.137 401.141S463.621 237.35 401.137 174.863ZM378.508 378.514C332.475 424.547 260.113 427.568 209.945 388.682L299.311 299.316C305.564 293.062 305.564 282.941 299.311 276.689C293.059 270.436 282.938 270.436 276.684 276.689L187.318 366.055C148.432 315.887 151.455 243.527 197.488 197.492C247.396 147.586 328.602 147.584 378.508 197.492C428.416 247.398 428.416 328.605 378.508 378.514ZM544 256.002C526.326 256.002 512 270.33 512 288.002C512 305.676 526.326 320.002 544 320.002S576 305.676 576 288.002C576 270.33 561.674 256.002 544 256.002ZM446.391 84.355C433.895 96.852 433.895 117.113 446.391 129.609C458.889 142.107 479.15 142.107 491.646 129.609C504.143 117.113 504.143 96.852 491.646 84.355C479.15 71.857 458.889 71.857 446.391 84.355Z"/></svg>

<svg xmlns="http://www.w3.org/2000/svg" viewBox="0 0 576 512"><!--! Font Awesome Pro 6.0.0-alpha3 by @fontawesome - https://fontawesome.com License - https://fontawesome.com/license (Commercial License) --><path d="M32 256c-17.67 0-32 14.33-32 32c0 17.67 14.33 32 32 32s32-14.33 32-32C64 270.3 49.67 256 32 256zM84.35 446.4c-12.5 12.5-12.5 32.76 0 45.26c12.5 12.5 32.76 12.5 45.26 0c12.5-12.5 12.5-32.76 0-45.26C117.1 433.9 96.85 433.9 84.35 446.4zM129.6 129.6c12.5-12.5 12.5-32.76 0-45.25c-12.5-12.5-32.76-12.5-45.26 0c-12.5 12.5-12.5 32.76 0 45.25C96.85 142.1 117.1 142.1 129.6 129.6zM288 64c17.67 0 32-14.33 32-32c0-17.67-14.33-32-32-32c-17.67 0-32 14.33-32 32C256 49.67 270.3 64 288 64zM446.4 446.4c-12.5 12.5-12.5 32.76 0 45.26c12.5 12.5 32.76 12.5 45.26 0c12.5-12.5 12.5-32.76 0-45.26S458.9 433.9 446.4 446.4zM401.1 174.9c-62.48-62.48-163.8-62.48-226.3 .002s-62.48 163.8 0 226.3c62.48 62.49 163.8 62.49 226.3 .002S463.6 237.3 401.1 174.9zM378.5 378.5c-46.03 46.03-118.4 49.05-168.6 10.17l89.37-89.37c6.254-6.254 6.254-16.37 0-22.63c-6.252-6.254-16.37-6.254-22.63 0L187.3 366.1c-38.89-50.17-35.86-122.5 10.17-168.6c49.91-49.91 131.1-49.91 181 0C428.4 247.4 428.4 328.6 378.5 378.5zM544 256c-17.67 0-32 14.33-32 32c0 17.67 14.33 32 32 32s32-14.33 32-32C576 270.3 561.7 256 544 256zM446.4 84.35c-12.5 12.5-12.5 32.76 0 45.25c12.5 12.5 32.76 12.5 45.26 0c12.5-12.5 12.5-32.76 0-45.25C479.2 71.86 458.9 71.86 446.4 84.35z"/></svg>
